packages/amis-editor/src/icons/form/input-quarter-range.svg

<?xml version="1.0" encoding="UTF-8"?>
<svg width="16px" height="16px" viewBox="0 0 16 16" version="1.1" xmlns="http://www.w3.org/2000/svg" xmlns:xlink="http://www.w3.org/1999/xlink">
    <g id="季度范围" stroke="none" stroke-width="1" fill="none" fill-rule="evenodd">
        <rect id="矩形" stroke="currentColor" stroke-linejoin="round" x="1.5" y="3" width="13" height="11"></rect>
        <line x1="5" y1="2" x2="5" y2="4" id="直线" stroke="currentColor" stroke-linecap="round" stroke-linejoin="round"></line>
        <line x1="11" y1="2" x2="11" y2="4" id="直线" stroke="currentColor" stroke-linecap="round" stroke-linejoin="round"></line>
        <line x1="1.5" y1="6.0024863" x2="14.5" y2="6.0024863" id="直线" stroke="currentColor" stroke-linecap="round" stroke-linejoin="round"></line>
        <path d="M4.7,11.798948 L4.7,8.22894797 L4.26,8.22894797 C4.14,8.35394797 3.99,8.46894797 3.81,8.57894797 C3.63,8.67894797 3.46,8.74894797 3.3,8.78894797 L3.3,9.36894797 C3.63,9.27394797 3.9,9.12894797 4.115,8.93394797 L4.115,11.798948 L4.7,11.798948 Z" id="1" stroke="currentColor" stroke-width="0.2" fill="currentColor" fill-rule="nonzero"></path>
        <path d="M11.405,11.868948 C11.795,11.868948 12.11,11.758948 12.35,11.543948 C12.58,11.333948 12.695,11.063948 12.695,10.733948 C12.695,10.523948 12.635,10.348948 12.515,10.213948 C12.405,10.083948 12.24,9.98894797 12.03,9.92394797 C12.425,9.79394797 12.625,9.53394797 12.625,9.14394797 C12.625,8.83394797 12.515,8.59394797 12.3,8.41894797 C12.08,8.24394797 11.785,8.15894797 11.425,8.15894797 C11.075,8.15894797 10.785,8.25394797 10.56,8.45394797 C10.32,8.65394797 10.19,8.93394797 10.16,9.29394797 L10.735,9.29394797 C10.755,9.07894797 10.825,8.91894797 10.945,8.81394797 C11.06,8.70894797 11.22,8.65894797 11.43,8.65894797 C11.635,8.65894797 11.79,8.70394797 11.895,8.79394797 C11.99,8.88394797 12.04,9.01394797 12.04,9.18894797 C12.04,9.36394797 11.985,9.49894797 11.88,9.58894797 C11.77,9.67894797 11.61,9.72394797 11.4,9.72394797 L11.15,9.72394797 L11.15,10.163948 L11.4,10.163948 C11.63,10.163948 11.805,10.208948 11.925,10.308948 C12.045,10.403948 12.11,10.553948 12.11,10.758948 C12.11,10.928948 12.05,11.068948 11.935,11.183948 C11.805,11.308948 11.625,11.373948 11.4,11.373948 C11.195,11.373948 11.03,11.313948 10.905,11.198948 C10.765,11.073948 10.695,10.893948 10.685,10.663948 L10.09,10.663948 C10.12,11.063948 10.26,11.373948 10.51,11.583948 C10.735,11.773948 11.035,11.868948 11.405,11.868948 Z" id="3" stroke="currentColor" stroke-width="0.2" fill="currentColor" fill-rule="nonzero"></path>
        <line x1="5.92282963" y1="10.013948" x2="8.92282963" y2="10.013948" id="直线" stroke="currentColor" stroke-width="0.8" stroke-linecap="round" stroke-linejoin="round"></line>
    </g>
</svg>

<svg width="16" height="16" xmlns="http://www.w3.org/2000/svg"><g fill="none" fill-rule="evenodd" stroke="currentColor"><path stroke-linejoin="round" d="M1.5 3h13v11h-13z"/><path stroke-linecap="round" stroke-linejoin="round" d="M5 2v2m6-2v2M1.5 6.002h13"/><path d="M4.7 11.799v-3.57h-.44c-.12.125-.27.24-.45.35-.18.1-.35.17-.51.21v.58c.33-.095.6-.24.815-.435v2.865H4.7Zm6.705.07c.39 0 .705-.11.945-.325.23-.21.345-.48.345-.81 0-.21-.06-.385-.18-.52-.11-.13-.275-.225-.485-.29.395-.13.595-.39.595-.78 0-.31-.11-.55-.325-.725-.22-.175-.515-.26-.875-.26-.35 0-.64.095-.865.295-.24.2-.37.48-.4.84h.575c.02-.215.09-.375.21-.48.115-.105.275-.155.485-.155.205 0 .36.045.465.135.095.09.145.22.145.395 0 .175-.055.31-.16.4-.11.09-.27.135-.48.135h-.25v.44h.25c.23 0 .405.045.525.145.12.095.185.245.185.45 0 .17-.06.31-.175.425-.13.125-.31.19-.535.19a.704.704 0 0 1-.495-.175c-.14-.125-.21-.305-.22-.535h-.595c.03.4.17.71.42.92.225.19.525.285.895.285Z" stroke-width=".2" fill="currentColor" fill-rule="nonzero"/><path stroke-width=".8" stroke-linecap="round" stroke-linejoin="round" d="M5.923 10.014h3"/></g></svg>
